X: 37477
T: Sliding Down The Bannister
R: jig
M: 6/8
K: Dmajor
|:D2 A d2 f|edc BGE|D2 A d2 f|ged CBA|
DFA d2 f|efe d3|gfe cBA|DBC D2A:|
|:e2 c dcB|GBd cBA|e2 c dcB|f3 d2A|
e2 c dcB|GBd cBA|e2 c dcB|1 a3 a3:|2 a3 d3||

